X:2356
L:1/8
M:6/8
K:D
 dAG FAE | DFA dcd | eAA GAA | EAA edc | dAG FAE | DFA dcd | eAA GAA |1 edc d3 :|2 edc d |: AG | 
 F2 A DGD | G2 B BAG | FGA dAF | EBA BAG | F2 A DGD | G2 B BAG |1 AFA dAF | FEC D :|2 AFA BAB | 
 cBc d3 |]

